static/img/kroki/7c2e8ea220b55461416f458f06729521.svg

<?xml version="1.0" encoding="us-ascii" standalone="no"?><svg xmlns="http://www.w3.org/2000/svg" xmlns:xlink="http://www.w3.org/1999/xlink" contentStyleType="text/css" height="152px" preserveAspectRatio="none" style="width:235px;height:152px;" version="1.1" viewBox="0 0 235 152" width="235px" zoomAndPan="magnify"><defs/><g><!--class aws_efs_access_point--><g id="elem_aws_efs_access_point"><rect codeLine="22" fill="#3D176E" height="39.7891" id="aws_efs_access_point" rx="2.5" ry="2.5" style="stroke:#000D19;stroke-width:0.5;" width="221" x="7" y="106.79"/><ellipse cx="22" cy="126.6845" fill="#ADD1B2" rx="11" ry="11" style="stroke:#181818;stroke-width:1.0;"/><path d="M24.9688,132.3252 Q24.3906,132.622 23.75,132.7627 Q23.1094,132.9189 22.4063,132.9189 Q19.9063,132.9189 18.5781,131.2783 Q17.2656,129.622 17.2656,126.497 Q17.2656,123.372 18.5781,121.7158 Q19.9063,120.0595 22.4063,120.0595 Q23.1094,120.0595 23.75,120.2158 Q24.4063,120.372 24.9688,120.6689 L24.9688,123.3877 Q24.3438,122.8095 23.75,122.5439 Q23.1563,122.2627 22.5313,122.2627 Q21.1875,122.2627 20.5,123.3408 Q19.8125,124.4033 19.8125,126.497 Q19.8125,128.5908 20.5,129.6689 Q21.1875,130.7314 22.5313,130.7314 Q23.1563,130.7314 23.75,130.4658 Q24.3438,130.1845 24.9688,129.6064 L24.9688,132.3252 Z " fill="#000000"/><text fill="#D9B8FF" font-family="Helvetica" font-size="17" lengthAdjust="spacing" textLength="179" x="41" y="132.5698">aws_efs_access_point</text></g><!--class aws_efs_file_system--><g id="elem_aws_efs_file_system"><rect codeLine="24" fill="#3D176E" height="39.7891" id="aws_efs_file_system" rx="2.5" ry="2.5" style="stroke:#000D19;stroke-width:0.5;" width="212" x="11.5" y="7"/><ellipse cx="26.5" cy="26.8945" fill="#ADD1B2" rx="11" ry="11" style="stroke:#181818;stroke-width:1.0;"/><path d="M29.4688,32.5352 Q28.8906,32.832 28.25,32.9727 Q27.6094,33.1289 26.9063,33.1289 Q24.4063,33.1289 23.0781,31.4883 Q21.7656,29.832 21.7656,26.707 Q21.7656,23.582 23.0781,21.9258 Q24.4063,20.2695 26.9063,20.2695 Q27.6094,20.2695 28.25,20.4258 Q28.9063,20.582 29.4688,20.8789 L29.4688,23.5977 Q28.8438,23.0195 28.25,22.7539 Q27.6563,22.4727 27.0313,22.4727 Q25.6875,22.4727 25,23.5508 Q24.3125,24.6133 24.3125,26.707 Q24.3125,28.8008 25,29.8789 Q25.6875,30.9414 27.0313,30.9414 Q27.6563,30.9414 28.25,30.6758 Q28.8438,30.3945 29.4688,29.8164 L29.4688,32.5352 Z " fill="#000000"/><text fill="#D9B8FF" font-family="Helvetica" font-size="17" lengthAdjust="spacing" textLength="170" x="45.5" y="32.7798">aws_efs_file_system</text></g><!--link aws_efs_file_system to aws_efs_access_point--><g id="link_aws_efs_file_system_aws_efs_access_point"><path codeLine="26" d="M117.5,47.22 C117.5,64.36 117.5,83.27 117.5,100.41 " fill="none" id="aws_efs_file_system-to-aws_efs_access_point" style="stroke:#1A83AF;stroke-width:2.0;"/><polygon fill="#1A83AF" points="117.5,106.41,121.5,97.41,117.5,101.41,113.5,97.41,117.5,106.41" style="stroke:#1A83AF;stroke-width:2.0;"/></g><!--SRC=[XPBDQiCm48JlUGf1pW6xfdLoAJY6q5v2QNehnMoaLI9YIMQbDAIbxruxQOigv-Swyp4xk-nQ2MIe6xzd6lKIoGtSHfa623GhYEokjBKbDfGIP9R7vimQVnMOWqRsWFKxUiKX9bxMYcyCEiTk0ciAVBCYkpNY6Ey9Z6ijD3wWoXgSAxmdjTnw3Cg8oN8iPKp6eSDCfFaTzZ1B0ka7IP94f9COkJhgujv_n49z84l3eysjnrxDteW3TR5bHmGbUul- -cSxFe4GogpORQ0z7pkHGVgdBzOWxAwZ9TGk7ECy4bg_Rx3iROMJiP3vIVZn7Coxop7OkGgbgu3pzc-gnYhZsUVWAxAbgh5o-pPM7znJ-kXrc1RZh9YzZUvFvdu3]--></g></svg>

<svg xmlns="http://www.w3.org/2000/svg" width="235" height="152" viewBox="0 0 235 152"><rect width="221" height="39.789" x="7" y="106.79" fill="#3D176E" rx="2.5" ry="2.5" style="stroke:#000d19;stroke-width:.5"/><circle cx="22" cy="126.684" r="11" fill="#ADD1B2" style="stroke:#181818;stroke-width:1"/><path d="M24.969 132.325q-.578.297-1.219.438-.64.156-1.344.156-2.5 0-3.828-1.64-1.312-1.657-1.312-4.782t1.312-4.781q1.328-1.656 3.828-1.656.703 0 1.344.156.656.156 1.219.453v2.719q-.625-.579-1.219-.844-.594-.281-1.219-.281-1.343 0-2.031 1.078-.687 1.062-.687 3.156t.687 3.172q.688 1.062 2.031 1.062.625 0 1.219-.265.594-.281 1.219-.86z"/><text x="41" y="132.57" fill="#D9B8FF" font-family="Helvetica" font-size="17" textLength="179">aws_efs_access_point</text><rect width="212" height="39.789" x="11.5" y="7" fill="#3D176E" rx="2.5" ry="2.5" style="stroke:#000d19;stroke-width:.5"/><circle cx="26.5" cy="26.895" r="11" fill="#ADD1B2" style="stroke:#181818;stroke-width:1"/><path d="M29.469 32.535q-.578.297-1.219.438-.64.156-1.344.156-2.5 0-3.828-1.64-1.312-1.657-1.312-4.782t1.312-4.781q1.328-1.656 3.828-1.656.703 0 1.344.156.656.156 1.219.453v2.719q-.625-.578-1.219-.844-.594-.281-1.219-.281-1.343 0-2.031 1.078-.687 1.062-.687 3.156T25 29.879q.688 1.062 2.031 1.062.625 0 1.219-.265.594-.281 1.219-.86z"/><text x="45.5" y="32.78" fill="#D9B8FF" font-family="Helvetica" font-size="17" textLength="170">aws_efs_file_system</text><path fill="none" d="M117.5 47.22v53.19" style="stroke:#1a83af;stroke-width:2"/><path fill="#1A83AF" d="m117.5 106.41 4-9-4 4-4-4z" style="stroke:#1a83af;stroke-width:2"/></svg>
